X: 41546
T: Underwood
R: hornpipe
M: 4/4
K: Eminor
"Em"E2(3EFG E2(3EFG|"Bm"B>G A>F G>E "D"F>D|"Em"E2(3EFG E2(3EFG|"Em"E>G "D"F>A "G"G>B "Bm7"A>D|
"Em"E2(3EFG E2(3EFG|"Bm"B>G A>F G>E "D"F>D|"Em"E2(3EFG E2(3EFG|"Bm"B>A "D"G>D"Em"E4|
"Bm"B2(3Bcd "Em"e>f g>a|"Em"b>B "F#m"a>B "G"g>B "A"f>B|"Bm"B2(3Bcd "Em"e>f g>a|"Em"b>a "D"g>f"Em"e2"Bm"B2|
"Bm"B2(3Bcd "Em"e>f g>a|"Em"b>B "F#m"a>B "G"g>B "A"f>B|"Bm"B2(3Bcd "Em"e>f g>a|"Em"b>a "D"g>f"Em"e4:|

